dist/icons/svgs/file-export-outline.svg

<svg xmlns="http://www.w3.org/2000/svg" width="24" height="24" fill="currentcolor" class="icon-file-export-outline" viewBox="0 0 24 24">
  <path d="M14.375 19.5V16.375H16.25V19.5C16.25 20.9062 15.1172 22 13.75 22H3.75C2.34375 22 1.25 20.9062 1.25 19.5V4.5C1.25 3.13281 2.34375 2 3.75 2H10.1953C10.8594 2 11.4844 2.27344 11.9531 2.74219L15.5078 6.29688C15.9766 6.76562 16.25 7.39062 16.25 8.05469V12H14.375V8.25H11.25C10.5469 8.25 10 7.70312 10 7V3.875H3.75C3.39844 3.875 3.125 4.1875 3.125 4.5V19.5C3.125 19.8516 3.39844 20.125 3.75 20.125H13.75C14.0625 20.125 14.375 19.8516 14.375 19.5ZM20.3516 10.3984L23.4766 13.5234C23.8281 13.9141 23.8281 14.5 23.4766 14.8516L20.3516 17.9766C19.9609 18.3672 19.375 18.3672 19.0234 17.9766C18.6328 17.625 18.6328 17.0391 19.0234 16.6484L20.5469 15.125H9.6875C9.14062 15.125 8.75 14.7344 8.75 14.1875C8.75 13.6797 9.14062 13.25 9.6875 13.25H20.5469L19.0234 11.7266C18.6328 11.375 18.6328 10.7891 19.0234 10.3984C19.375 10.0469 19.9609 10.0469 20.3516 10.3984Z"/>
</svg>

<svg xmlns="http://www.w3.org/2000/svg" width="24" height="24" fill="currentColor" class="icon-file-export-outline" viewBox="0 0 24 24">
  <path d="M14.375 19.5v-3.125h1.875V19.5c0 1.406-1.133 2.5-2.5 2.5h-10a2.47 2.47 0 0 1-2.5-2.5v-15c0-1.367 1.094-2.5 2.5-2.5h6.445c.664 0 1.29.273 1.758.742l3.555 3.555c.469.469.742 1.094.742 1.758V12h-1.875V8.25H11.25C10.547 8.25 10 7.703 10 7V3.875H3.75a.64.64 0 0 0-.625.625v15c0 .352.273.625.625.625h10a.64.64 0 0 0 .625-.625m5.977-9.102 3.125 3.125c.351.391.351.977 0 1.329l-3.125 3.125c-.391.39-.977.39-1.329 0-.39-.352-.39-.938 0-1.329l1.524-1.523H9.687c-.546 0-.937-.39-.937-.937 0-.508.39-.938.938-.938h10.859l-1.524-1.523c-.39-.352-.39-.938 0-1.329.352-.351.938-.351 1.329 0"/>
</svg>
